X: 32
T:VALSE DES TROIS CHATEAUX
M:3/4
L:1/8
Q:190
C:S.P.
R:valse
K:G
"A"d2de dc|B2Bc BA|G2B2d2|d6|d2de dc|B2Bc BA|G2B2d2|A6|A2c2e2|e2c2A2|G2B
2d2|d6|A2B2c2|c2B2A2|
 B4e2|d6|A2c2e2|e2c2A2|G2B2d2|d6|A2B2c2|c2B2A2| G6-|G6||"B" B2e2d2|B2G2A
2|B2e2d2|B6| B2e2d2|B2G2A2|B2e2d2|d4A2|c2f2e2|c2A2B2|c2f2e2|c6|A2B2c2|
c2B2A2|B4e2|d6| B2e2d2|B2G2A2|B2e2d2|B6| B2e2d2|B2G2A2|B2e2d2|d4A2|c2f2e
2|c2A2B2|c2f2e2|c6|A2B2c2|
c2B2A2|B4e2|d6||"C" d2dB GB|d2dB GB|d2g2f2| e2ec Ac|e2ec Ac|e2f2e2 d2dB
GB|d2dB GB|d2g2f2| e6|A2B2c2|c2B2A2|G6|d2dB GB|d2dB GB|d2g2f2| e2ec Ac|e
2ec Ac|e2f2e2 d2dB GB|d2dB GB|d2g2f2| e6|A2B2c2|c2B2A2|G6||
